img/dark/f2.svg

<svg xmlns="http://www.w3.org/2000/svg" width="24" height="24" xmlns:v="https://vecta.io/nano"><path d="M18 5v17H3V5h15zm-2 2H5v13h11V7zm5-5v17h-2V4H6V2h15zm-9 12v2H7v-2h5zm2-4v2H7v-2h7z" fill="#fff" fill-rule="evenodd"/></svg>

<?xml version="1.0" encoding="UTF-8"?>
<svg width="24px" height="24px" viewBox="0 0 24 24" version="1.1" xmlns="http://www.w3.org/2000/svg" xmlns:xlink="http://www.w3.org/1999/xlink">
    <!-- Generator: Sketch 60.1 (88133) - https://sketch.com -->
    <title>f2_dark</title>
    <desc>Created with Sketch.</desc>
    <g id="f2_dark" stroke="none" stroke-width="1" fill="none" fill-rule="evenodd">
        <path d="M18,5 L18,22 L3,22 L3,5 L18,5 Z M16,7 L5,7 L5,20 L16,20 L16,7 Z M21,2 L21,19 L19,19 L19,4 L6,4 L6,2 L21,2 Z M12,14 L12,16 L7,16 L7,14 L12,14 Z M14,10 L14,12 L7,12 L7,10 L14,10 Z" id="形状结合" fill="#FFFFFF"></path>
    </g>
</svg>
